src/images/star.svg

<svg xmlns="http://www.w3.org/2000/svg" fill="none" viewBox="0 0 1553 1591"><g filter="url(#filter0_f_96_956)"><path fill="url(#paint0_linear_96_956)" d="M671.478 360.083l198.954 266.504 314.938-106.862-191.978 271.57L1192.35 1057.8l-317.608-98.665-191.98 271.575-4.31-332.553-317.604-98.664 314.94-106.862-4.31-332.548z"/></g><defs><filter id="filter0_f_96_956" width="1551.5" height="1590.62" x=".848" y=".083" color-interpolation-filters="sRGB" filterUnits="userSpaceOnUse"><feFlood flood-opacity="0" result="BackgroundImageFix"/><feBlend in="SourceGraphic" in2="BackgroundImageFix" result="shape"/><feGaussianBlur result="effect1_foregroundBlur_96_956" stdDeviation="180"/></filter><linearGradient id="paint0_linear_96_956" x1="818.379" x2="413.035" y1="751.195" y2="718.779" gradientUnits="userSpaceOnUse"><stop stop-color="#1F12D3"/><stop offset="1" stop-color="#3FAFDE"/></linearGradient></defs></svg>

<svg width="1553" height="1591" viewBox="0 0 1553 1591" fill="none" xmlns="http://www.w3.org/2000/svg">
<g filter="url(#filter0_f_96_956)">
<path d="M671.478 360.083L870.432 626.587L1185.37 519.725L993.392 791.295L1192.35 1057.8L874.742 959.135L682.762 1230.71L678.452 898.157L360.848 799.493L675.788 692.631L671.478 360.083Z" fill="url(#paint0_linear_96_956)"/>
</g>
<defs>
<filter id="filter0_f_96_956" x="0.847778" y="0.0830078" width="1551.5" height="1590.62" filterUnits="userSpaceOnUse" color-interpolation-filters="sRGB">
<feFlood flood-opacity="0" result="BackgroundImageFix"/>
<feBlend mode="normal" in="SourceGraphic" in2="BackgroundImageFix" result="shape"/>
<feGaussianBlur stdDeviation="180" result="effect1_foregroundBlur_96_956"/>
</filter>
<linearGradient id="paint0_linear_96_956" x1="818.379" y1="751.195" x2="413.035" y2="718.779" gradientUnits="userSpaceOnUse">
<stop stop-color="#1F12D3"/>
<stop offset="1" stop-color="#3FAFDE"/>
</linearGradient>
</defs>
</svg>
